tienda-reactJS/client/public/assets/img/ic_dashboard.svg

<svg enable-background="new 0 0 24 24" viewBox="0 0 24 24" xmlns="http://www.w3.org/2000/svg"><path d="m3 13h8v-10h-8zm0 8h8v-6h-8zm10 0h8v-10h-8zm0-18v6h8v-6z"/></svg>

<?xml version="1.0" encoding="utf-8"?>
<!-- Generator: Adobe Illustrator 22.1.0, SVG Export Plug-In . SVG Version: 6.00 Build 0)  -->
<svg version="1.1" id="Layer_1" xmlns="http://www.w3.org/2000/svg" xmlns:xlink="http://www.w3.org/1999/xlink" x="0px" y="0px"
	 viewBox="0 0 24 24" style="enable-background:new 0 0 24 24;" xml:space="preserve">
<style type="text/css">
	.st0{enable-background:new    ;}
</style>
<path class="st0" d="M3,13h8V3H3V13z M3,21h8v-6H3V21z M13,21h8V11h-8V21z M13,3v6h8V3H13z"/>
</svg>
